X:1
T: Major Graham
T: Major Graham of Inchbrakie
C:Niel Gow
R:Strathspey
Q: 128
K:D
M:4/4
L:1/16
|:D3B,|A,3B, DD3 D4 d3B|A3F ED3 E4 D3B,|A,3B, DD3 D4 d3B|A3F EF3 D4 D3B,|
A,3B, DD3 D4 d3B|A3F ED3 E4 D3B, A,3B, DD3 D4 d3B|A3F EF3 D4 D3B,|
d3e d3c B3A Bd3|AF3 E3D E4-E2A2|d3e d3c B3A Bd3|AF3 E3F D4-D2A2|
d3e d3c B3A Bd3|AF3 E3F E4-E2A2|d3e d3c B3A Bd3|AF3 E3F D4-D2:|
